X: 41782
T: Veganites
R: reel
M: 4/4
K: Bminor
AB B2 dBed|ef f/f/f edBd|AB B2 dedB|e2 de fedB|
AB B2 dBed|ef f/f/f edef|af f2 efde|e2de edBA:|

